X: 21433
T: WE'LL ALL BE WED IN OUR AULD CLAES -- (Very Old)
R: hornpipe
B: K\"ohler's Violin Repository, v.2, 1885 p.143 #3
F: http://www.archive.org/details/klersviolinrepos02rugg
Z: 2012 John Chambers <jc:trillian.mit.edu>
M: C|
L: 1/8
K: D
u(A>c) !segno!|\
d>c (3AFA d2 A>B | (3=cdc (3GEG c2 (A>^c) |\
d>g (3faf d2 A>G | (3FGF (3EDC D2 :|
u(F>G) |\
(3ABA (3FDF A2 (c>A) | (3GAG (3ECE G2 (B>G) |\
(3ABA (3FDF A2 (g>e) | (3faf (3gec d2 |]
(f>g) |\
(3aba (3fdf (3aba (3fdf | (3gag (3ece (3gag (3ece |\
(3aba (3fdf (3aba (3gag | (3fgf (3efe (3dcB "^D.C."(3ABc !segno!|]

%%sep 2 1 500

